resources/svg/divider-line-o.svg

<svg xmlns="http://www.w3.org/2000/svg" viewBox="0 0 15 15" fill="none"><path d="M0 7.5H15M3 4.5H10M3 1.5H12M3 10.5H12M3 13.5H10" stroke="black"/></svg>

<svg xmlns="http://www.w3.org/2000/svg" viewBox="0 0 15 15" fill="none"><path d="M0 7.5h15m-12-3h7m-7-3h9m-9 9h9m-9 3h7" stroke="currentColor"/></svg>
